X:1
T:Sefton, LM
T:Sefton, LM
T:John Baptiste Calkin, 1872
T:Public Domain Courtesy of the Cyber Hymnal™
C:John Baptiste Calkin, 1872
Z:Public Domain
Z:Courtesy of the Cyber Hymnal™
%%score ( 1 2 ) 3
L:1/8
Q:1/4=113
M:4/4
K:E
V:1 treble 
V:2 treble 
V:3 bass 
V:1
 [EG]2 | G3 z F E2 [EB]2 | B3 z A [EG]2 [Ee]2 | [Ed]2 [Ec]2 [EB]2 [E^A]2 | %4
 [E^A]3 [DB] [DB]2 [FB]2 | [Fc]3 F F2 [CG]2 | [CA]3 C C2 [B,D]2 | [B,E]2 [EB]2 [EB]2 [EA]2 | %8
 [DF]3 E !fermata!E2 |] %9
V:2
 x2 | E2 (D2 E2) x3 | E2 E2 x5 | x8 | x8 | x3 F F2 x2 | x3 C C2 x2 | x8 | x3 E E2 |] %9
V:3
 [E,B,]2 | [E,B,]2 [B,,A,]2 [C,G,]2 [G,,=D]2 x | [A,,C]2 [C,C]2 [E,B,]2 [C,C]2 x | %3
 [^A,,F,]2 [A,,F,]2 [B,,F,]2 [C,F,]2 | [C,F,]3 [B,,F,] [B,,F,]2 [B,D]2 | %5
 [A,C]3 [A,C] [A,C]2 [^E,B,]2 | [F,A,]3 [F,A,] [F,A,]2 [A,B,]2 | [G,B,]2 [G,,B,]2 [A,,C]2 [A,,C]2 | %8
 [B,,A,]3 [E,G,] !fermata![E,G,]2 |] %9

